svgs/sharp-solid/arrows-to-line.svg

<svg xmlns="http://www.w3.org/2000/svg" viewBox="0 0 448 512"><!--! Font Awesome Pro 6.6.0 by @fontawesome - https://fontawesome.com License - https://fontawesome.com/license (Commercial License) Copyright 2024 Fonticons, Inc. --><path d="M256 32l0-32L192 0l0 32 0 32-64 0 0 32 96 96 96-96 0-32-64 0 0-32zM192 448l0 32 0 32 64 0 0-32 0-32 64 0 0-32-96-96-96 96 0 32 64 0zM32 224L0 224l0 64 32 0 384 0 32 0 0-64-32 0L32 224z"/></svg>

<svg xmlns="http://www.w3.org/2000/svg" viewBox="0 0 448 512"><!--! Font Awesome Pro 6.4.2 by @fontawesome - https://fontawesome.com License - https://fontawesome.com/license (Commercial License) Copyright 2023 Fonticons, Inc. --><path d="M256 32V0H192V32 64H128V96l96 96 96-96V64H256V32zM192 448v32 32h64V480 448h64V416l-96-96-96 96v32h64zM32 224H0v64H32 416h32V224H416 32z"/></svg>
